X:1
T:Dundee -- Hornpipe
R:hornpipe
B:Cole's 1000 Fiddle Tunes
Z:Bob Puckette <bpuckette:msn.com> 2003-3-8
M:2/4
L:1/16
K:D
vFG|AFDF AFdB|AdFA fedc|BdGB gefd|ecdB A2(FG)|
AFDF AFdB|AdFA fedc|BdGB gefd|ecac d2:|
|:ude|fdcd BdAd|FAde fdcd|"0"eAfA gAfA|ecdB A2(de)|
fdcd BdAd|FAde fdcd|"0"eAfA gAfA|ecAc d2:|
